svg/save.svg

<?xml version="1.0" encoding="UTF-8"?>
<svg xmlns="http://www.w3.org/2000/svg" xmlns:xlink="http://www.w3.org/1999/xlink" width="32" height="32" viewBox="0 0 32 32">
<path fill-rule="nonzero" fill="rgb(0%, 0%, 0%)" fill-opacity="1" d="M 5.121094 2.558594 C 4.03125 2.558594 3.199219 3.390625 3.199219 4.480469 L 3.199219 27.519531 C 3.199219 28.609375 4.03125 29.441406 5.121094 29.441406 L 28.160156 29.441406 C 29.246094 29.441406 30.078125 28.609375 30.078125 27.519531 L 30.078125 8.449219 C 30.085938 8.277344 30.015625 8.113281 29.886719 8 L 24.640625 2.753906 C 24.527344 2.625 24.363281 2.554688 24.191406 2.558594 Z M 8.320312 3.839844 L 23.679688 3.839844 L 23.679688 11.519531 C 23.679688 12.222656 23.105469 12.800781 22.398438 12.800781 L 9.601562 12.800781 C 9.261719 12.800781 8.933594 12.667969 8.695312 12.425781 C 8.453125 12.1875 8.320312 11.859375 8.320312 11.519531 Z M 18.558594 5.761719 L 18.558594 10.878906 L 21.121094 10.878906 L 21.121094 5.761719 Z M 9.601562 17.28125 L 23.679688 17.28125 C 24.382812 17.28125 24.960938 17.855469 24.960938 18.558594 L 24.960938 28.160156 L 8.320312 28.160156 L 8.320312 18.558594 C 8.320312 17.855469 8.894531 17.28125 9.601562 17.28125 M 5.121094 26.238281 L 6.398438 26.238281 L 6.398438 27.519531 L 5.121094 27.519531 Z M 26.878906 26.238281 L 28.160156 26.238281 L 28.160156 27.519531 L 26.878906 27.519531 Z M 26.878906 26.238281 "/>
</svg>

<svg role="img" viewBox="0 0 32 32" height="32" width="32" xmlns="http://www.w3.org/2000/svg"><path d="M5.121 2.559c-1.09 0-1.922.832-1.922 1.921v23.04c0 1.09.832 1.921 1.922 1.921h23.04c1.085 0 1.917-.832 1.917-1.921V8.45a.562.562 0 0 0-.191-.45L24.64 2.754a.578.578 0 0 0-.45-.195Zm3.2 1.28H23.68v7.68c0 .704-.575 1.282-1.282 1.282H9.602a1.27 1.27 0 0 1-.907-.375 1.27 1.27 0 0 1-.375-.906Zm10.238 1.923v5.117h2.562V5.762Zm-8.957 11.52H23.68c.703 0 1.28.573 1.28 1.277v9.601H8.32v-9.6c0-.704.575-1.278 1.282-1.278m-4.48 8.957h1.276v1.282H5.121Zm21.757 0h1.281v1.282h-1.28Zm0 0"/></svg>
